!!!!SEGMENT: pl-gd--ee-1638--006-024_marenzio-luca--il-quinto-libro-de-madrigalia-a-cinque-voci-liete-verdi-fiorite.krn
!!!cenid: 15xx:906
!!!COM: Marenzio, Luca
!!!COM-rismID: pe30003955
!!!CDT: ~1553-1599/08/22
!!!CNT: Italian
!!!GTL: Il Quinto libro de madrigalia a cinque voci
!!!OTL: Liete verdi fiorite
!!!OMV: 024
!!!PDT: 1585
!!!AGN:
!!!SMS-siglum: PL-GD
!!!SMS-shelfmark: Ee 1638
!!!SMS-variant:
!!!SMS-altvar:
!!!SMS-shelfwork: 006-024 G
!!!NIFC-rismSourceID: 990039296
!!!NIFC-islandoraID: pl-gd:57883
!!!URL-pdf-islandora: https://repozytorium.nifc.pl/islandora/object/pl-gd%3A57883/datastream/PDF/view
!!!URL-scan: https://polish.musicsources.pl/pl/lokalizacje/galeria/klocki-introligatorskie/655 @EN{Scan on Polish Music Sources Website} @PL{Skany w portalu Dziedzictwo Muzyki Polskiej w otwartym dostępie}
!!!ONB-nifc:
!!!AIN: 1 alto 1 bass 1 soprn 1 tenor 1 vox
!!!key: F
**kern	**text	**kern	**text	**kern	**text	**kern	**text	**kern	**text
*part5	*part5	*part4	*part4	*part3	*part3	*part2	*part2	*part1	*part1
*staff5	*staff5	*staff4	*staff4	*staff3	*staff3	*staff2	*staff2	*staff1	*staff1
*I"BASSO	*	*I"TENORE	*	*I"QVINTO	*	*I"ALTO	*	*I"CANTO	*
*I'B	*	*I'T	*	*I'V	*	*I'A	*	*I'S	*
*ICvox	*	*ICvox	*	*ICvox	*	*ICvox	*	*ICvox	*
*Ibass	*	*Itenor	*	*Ivox	*	*Ialto	*	*Isoprn	*
*clefF4	*	*clefC4	*	*clefC4	*	*clefC3	*	*clefC1	*
*k[b-]	*	*k[b-]	*	*k[b-]	*	*k[b-]	*	*k[b-]	*
*F:	*	*F:	*	*F:	*	*F:	*	*F:	*
*M4/4	*	*M4/4	*	*M4/4	*	*M4/4	*	*M4/4	*
*met(C)	*	*met(C)	*	*met(C)	*	*met(C)	*	*met(C)	*
=1-	=1-	=1-	=1-	=1-	=1-	=1-	=1-	=1-	=1-
!LO:TX:a:t=Prima parte.	!	!LO:TX:a:t=Prima parte.	!	!LO:TX:a:t=Prima parte.	!	!LO:TX:a:t=Prima parte.	!	!LO:TX:a:t=Prima parte.	!
00r	.	0r	.	0r	.	2r	.	2cc\	LIe
.	.	.	.	.	.	2f\	LIe	2a\	te
=2-	=2-	=2-	=2-	=2-	=2-	=2-	=2-	=2-	=2-
.	.	.	.	.	.	2d\	te	2dd\	ver-
!	!	!	!	!	!	!	!	!LO:N:acc=#	!
.	.	.	.	.	.	2g\	ver-	4.bn\	-di
.	.	.	.	.	.	.	.	8b\	fio-
=3-	=3-	=3-	=3-	=3-	=3-	=3-	=3-	=3-	=3-
.	.	1r	.	1r	.	4.e\	-di	4cc\	-ri-
.	.	.	.	.	.	.	.	4g/	-te
.	.	.	.	.	.	8e\	fio-	.	.
.	.	.	.	.	.	4f\	-ri-	8a\	e
.	.	.	.	.	.	.	.	8b-y\	freſ-
.	.	.	.	.	.	4c/	-te e	8cc\	.
.	.	.	.	.	.	.	.	8a\	.
=4-	=4-	=4-	=4-	=4-	=4-	=4-	=4-	=4-	=4-
.	.	2r	.	2r	.	4d\	freſ-	4b-\	.
.	.	.	.	.	.	4f\	-che	4a\	-che
.	.	4r	.	2c\	LIe	2e\	val-	2g/	val-
.	.	2c\	LIe	.	.	.	.	.	.
=5-	=5-	=5-	=5-	=5-	=5-	=5-	=5-	=5-	=5-
2F\	LIe-	.	.	2A/	te	4.f\	-li	2a\	-li
.	.	2A/	te	.	.	.	.	.	.
.	.	.	.	.	.	8g\	.	.	.
*	*	*	*	*	*	*	*	*	*ij
2D/	-te	.	.	2d\	ver-	2a\	.	2f/	Lie-
.	.	2d\	ver-	.	.	.	.	.	.
=6-	=6-	=6-	=6-	=6-	=6-	=6-	=6-	=6-	=6-
!	!	!	!	!LO:N:acc=#	!	!	!	!LO:SIC:v:t=custos g	!
2G\	ver-	.	.	4.Bn\	-di	4r	.	2d/	-te
.	.	4.G/	-di	.	.	4d\	-e	.	.
.	.	.	.	8B\	fio-	.	.	.	.
!	!	!	!	!	!	!	!	!LO:LB:g=original	!
4.E\	-di	.	.	4c\	-ri-	2e\	freſ-	4g/	ver-
.	.	8G/	fio-	.	.	.	.	.	.
.	.	2c\	-ri-	4G/	te e	.	.	8g/	-di
8E\	fio-	.	.	.	.	.	.	8g/	fio-
=7-	=7-	=7-	=7-	=7-	=7-	=7-	=7-	=7-	=7-
!	!	!	!	!	!	!LO:SIC:v:t=custos f	!	!	!
4F\	-ri-	.	.	8A\	fre-	2c/	che	4f/	-ri-
.	.	.	.	8B-y\	.	.	.	.	.
4F\	-te	4A/	te	8c\	.	.	.	4a\	-te
.	.	.	.	8A\	.	.	.	.	.
!	!	!	!	!	!	!LO:LB:g=original	!	!	!
4BB-/	e fref	4F/	e freſ-	4B-\	.	2.f\	val-	4dd\	e freſ-
!	!	!	!	!LO:SIC:v:t=custos G	!	!	!	!	!
4FF/	che	4c\	-che	4A/	-ſche	.	.	4cc\	-che
!	!	!	!	!LO:LB:g=original	!	!	!	!	!
=8-	=8-	=8-	=8-	=8-	=8-	=8-	=8-	=8-	=8-
1C	val-	1c	val-	1G	val-	.	.	1cc	val-
.	.	.	.	.	.	8e\	.	.	.
.	.	.	.	.	.	8d\	.	.	.
.	.	.	.	.	.	2e\	.	.	.
=9-	=9-	=9-	=9-	=9-	=9-	=9-	=9-	=9-	=9-
2FF/	-li	1c	-li	2F/	-li	1f	-li	1a	-li
2F\	Om-	.	.	2A/	Om-	.	.	.	.
*	*	*	*	*	*	*	*	*	*Xij
=10-	=10-	=10-	=10-	=10-	=10-	=10-	=10-	=10-	=10-
8G\	-bro-	1r	.	8B-\	-bro-	2r	.	1r	.
!LO:SIC:v:t=custos G	!	!	!	!	!	!	!	!	!
8F\	.	.	.	8A\	.	.	.	.	.
!LO:LB:g=original	!	!	!	!	!	!	!	!	!
8G\	.	.	.	8B-\	.	.	.	.	.
8A\	.	.	.	8c\	.	.	.	.	.
4B-\	.	.	.	4d\	.	4r	.	.	.
4B-\	-fe	.	.	4G/	ſe	4d\	Om-	.	.
=11-	=11-	=11-	=11-	=11-	=11-	=11-	=11-	=11-	=11-
2A\	fel-	4r	.	2c\	ſel-	8e\	-bro-	4r	.
.	.	.	.	.	.	8d\	.	.	.
!	!	!LO:SIC:v:t=custos d	!	!	!	!	!	!	!
.	.	4c\	Om-	.	.	8e\	.	4a\	Om-
.	.	.	.	.	.	8f\	.	.	.
!	!	!LO:LB:g=original	!	!	!	!	!	!	!
2G\	-ue	8d\	-bro-	2B-\	-ue e	4g\	.	8b-\	-bro-
.	.	8c\	.	.	.	.	.	8a\	.
.	.	8d\	.	.	.	4g\	-ſe	8b-\	.
.	.	8e\	.	.	.	.	.	8cc\	.
=12-	=12-	=12-	=12-	=12-	=12-	=12-	=12-	=12-	=12-
4.D/	e fo-	4f\	.	4.F/	ſo-	1a	ſel-	4dd\	.
.	.	4f\	-ſe	.	.	.	.	4dd\	-ſe
8E\	-li-	.	.	8G/	-li-	.	.	.	.
4F\	-ta-	2f\	ſel-	4A/	-ta-	.	.	1cc\	ſel-
4A\	-ri	.	.	4c\	-ri	.	.	.	.
=13-	=13-	=13-	=13-	=13-	=13-	=13-	=13-	=13-	=13-
2c\	mon-	2e\	ue	2C/	mon-	2g\	-ue	.	.
4C/	-ti	4r	.	2c\	-ti	4r	.	2g/	-ve
4C/	e	4c\	e	.	.	4g\	e	.	.
=14-	=14-	=14-	=14-	=14-	=14-	=14-	=14-	=14-	=14-
4.D/	fo-	4.F/	ſo-	4r	.	2a\	ſo-	4dd\	e ſo-
.	.	.	.	4f\	e	.	.	4dd\	-li-
8E\	-li-	8G/	-li-	.	.	.	.	.	.
4F\	-ta-	4A/	-ta-	4.c\	ſo-	4f\	-li-	2cc\	-ta-
4A\	-ri	4c\	ri	.	.	4.e\	-ta-	.	.
!	!	!	!	!LO:SIC:v:t=custos e	!	!	!	!	!
.	.	.	.	8d\	-li-	.	.	.	.
!	!	!	!	!LO:LB:g=original	!	!	!	!	!
=15-	=15-	=15-	=15-	=15-	=15-	=15-	=15-	=15-	=15-
2c\	mon-	2C/	mon-	4.e\	-ta-	.	.	4cc\	-ri
.	.	.	.	.	.	8f\	.	.	.
.	.	.	.	.	.	2g\	.	8c/	mon-
!	!	!	!	!	!	!	!	!LO:SIC:v:t=custos e	!
.	.	.	.	8e\	-ri	.	.	8d/	.
!	!	!	!	!	!	!	!	!LO:LB:g=original	!
2C/	-ti	2c\	-ti	2g\	mon-	.	.	8e/	.
.	.	.	.	.	.	.	.	8f/	.
!	!	!	!	!	!	!LO:SIC:v:t=custos d	!	!	!
.	.	.	.	.	.	4e\	-ri	8g/	.
.	.	.	.	.	.	.	.	8a\	.
!	!	!	!	!	!	!LO:LB:g=original	!	!	!
=16-	=16-	=16-	=16-	=16-	=16-	=16-	=16-	=16-	=16-
!	!	!	!	!	!	!	!	!LO:N:acc=#	!
1r	.	1r	.	1G	-ti	1d	mon-	4bn\	.
.	.	.	.	.	.	.	.	2b\	.
!	!	!	!	!	!	!	!	!LO:N:acc=#	!
.	.	.	.	.	.	.	.	4b\	.
=17-	=17-	=17-	=17-	=17-	=17-	=17-	=17-	=17-	=17-
2r	.	2r	.	1r	.	2c/	-ti	2cc\	ti
!LO:SIC:v:t=custos D	!	!	!	!	!	!	!	!	!
4C/	vagh'	4c\	vagh'	.	.	2r	.	2r	.
!LO:LB:g=original	!	!	!	!	!	!	!	!	!
8D/	au-	8F/	au-	.	.	.	.	.	.
8E\	-ge-	8G/	-ge-	.	.	.	.	.	.
=18-	=18-	=18-	=18-	=18-	=18-	=18-	=18-	=18-	=18-
4F\	-llet-	4A/	-llet-	2r	.	4c/	vagh'	4cc\	vagh'
4F\	-ti	4A/	-ti	.	.	8d\	au-	8f/	au-
.	.	.	.	.	.	8e\	-ge-	8g/	-ge-
2r	.	2r	.	4F/	vag'h	4f\	-llet-	4a\	-llet-
.	.	.	.	8A\	au-	4f\	-ti	4a\	-ti
.	.	.	.	8B-\	-ge-	.	.	.	.
=19-	=19-	=19-	=19-	=19-	=19-	=19-	=19-	=19-	=19-
!	!	!LO:SIC:v:t=custos F	!	!	!	!	!	!	!
*	*ij	*	*ij	*	*	*	*	*	*
4C/	vagh'	4G/	vagh'	4c\	-llet-	2r	.	2r	.
!	!	!LO:LB:g=original	!	!	!	!	!	!	!
8D/	au-	8F/	au-	4A/	-ti	.	.	.	.
8E\	-ge-	8G/	-ge-	.	.	.	.	.	.
4F\	-llet-	4A/	-llet-	2r	.	4c/	Vagh'	4cc\	Vagh'
4F\	-ti	4A/	-ti	.	.	8d\	au-	8f/	au-
.	.	.	.	.	.	8e\	-ge-	8g/	-ge-
*	*Xij	*	*Xij	*	*	*	*	*	*
=20-	=20-	=20-	=20-	=20-	=20-	=20-	=20-	=20-	=20-
4r	.	4r	.	4r	.	4f\	-llet-	4a\	-llet-
4F\	a-	4A/	a	4c\	a	4f\	-ti	4a\	-ti
4.BB-/	-le	4.F/	le	4.B-\	le	4.f\	ale	4.dd\	ale
!	!	!	!	!	!	!	!	!LO:SIC:v:t=custos dd	!
8BB-/	mie	8F/	mie	8B-\	mie	8f\	mie	8dd\	mie
!	!	!	!	!	!	!	!	!LO:LB:g=original	!
=21-	=21-	=21-	=21-	=21-	=21-	=21-	=21-	=21-	=21-
4BB-/	no-	4B-\	no-	4d\	no-	4f\	no-	4dd\	not-
4FF/	-te	4c\	-te	4A/	-te	4a\	-te	4cc\	-ti
2GG/	pron-	2G/	pron-	2d\	pron-	1g\	pron-	2b-y\	pron-
=22-	=22-	=22-	=22-	=22-	=22-	=22-	=22-	=22-	=22-
1D	-ti	1A	-ti	1d	-ti	.	.	1a	-ti
.	.	.	.	.	.	2f\	-ti	.	.
=23-	=23-	=23-	=23-	=23-	=23-	=23-	=23-	=23-	=23-
*	*	*	*	*	*	*	*	*yM3/1	*
*	*	*	*	*	*	*	*	*ymet(3)	*
4.AA/	Di	4.A/	Di	4.c#X\	Di	4.e\	Di	4.a\	Di
*col	*	*col	*	*col	*	*col	*	*col	*
8AA/	co-	8A/	co-	8cny\	co-	8e\	co-	8a\	co-
!	!	!	!	!LO:SIC:v:t=custos d	!	!LO:SIC:v:t=custos e	!	!	!
4AA/	-lor	4A/	-lor	4c\	-lor	4e\	-lor	4a\	-lor
!	!	!	!	!LO:LB:g=original	!	!LO:LB:g=original	!	!	!
1D	per	1A	per	1d	per	1f#X	per	1a	per
*Xcol	*	*Xcol	*	*Xcol	*	*Xcol	*	*Xcol	*
!	!	!	!	!	!	!	!	!LO:N:acc=#	!
4GG/	fi	4G/	ſi	4d\	ſi	4g\	ſi	4bn\	ſi
*M3/1	*	*M3/1	*	*M3/1	*	*M3/1	*	*M3/1	*
*met(3)	*	*met(3)	*	*met(3)	*	*met(3)	*	*met(3)	*
2.C/	va-	2.G/	va-	2.c\	va-	2.e\	va-	2.cc\	va-
4C/	-ria-	4G/	-ria-	4c\	-ria-	4e\	-ria-	4cc\	-ria-
=24-	=24-	=24-	=24-	=24-	=24-	=24-	=24-	=24-	=24-
!	!	!LO:SIC:v:t=custos F	!	!	!	!	!	!	!
2AA/	-ti	2F/	-t'	2c\	-ti	2a\	-ti	2f/	-ti
!	!	!LO:LB:g=original	!	!	!	!	!	!	!
2BB-/	e	1F	e	1B-	e	2d\	e	1b-y	e gial-
1GG	gial-	.	.	.	.	1g	gial-	.	.
*	*	*	*	*	*	*	*	*M4/4	*
*	*	*	*	*	*	*	*	*met(C)	*
!	!	!	!	!	!	!LO:TX:t=P:problem: zmiana metrum nie wyświetla się	!	!LO:TX:t=P:problem: zmiana metrum nie wyświetla się	!
.	.	2E/	gial-	2G/	gial-	.	.	1a	-li
*M4/4	*	*M4/4	*	*M4/4	*	*M4/4	*	*	*
*met(C)	*	*met(C)	*	*met(C)	*	*met(C)	*	*	*
!LO:TX:t=P:problem: zmiana metrum nie wyświetla się	!	!LO:TX:t=P:problem: zmiana metrum nie wyświetla się	!	!	!	!	!	!	!
1FF	-li	1F	-li	1A	-li	1c	-li	.	.
.	.	.	.	.	.	.	.	2r	.
=25-	=25-	=25-	=25-	=25-	=25-	=25-	=25-	=25-	=25-
1C	Voi	1G	Voi	1c	Voi	1e	Voi	1g	Voi
=26-	=26-	=26-	=26-	=26-	=26-	=26-	=26-	=26-	=26-
1r	.	1r	.	1r	.	1r	.	2r	.
.	.	.	.	.	.	.	.	2e/	Voi
=27-	=27-	=27-	=27-	=27-	=27-	=27-	=27-	=27-	=27-
1C	Voi	1c	Voi	2r	.	1e	Voi	4e/	ſu-
!	!	!	!	!	!	!	!	!LO:SIC:v:t=custos e	!
.	.	.	.	.	.	.	.	4d/	.
!	!	!	!	!	!	!	!	!LO:LB:g=original	!
.	.	.	.	2G/	Voi	.	.	4e/	.
.	.	.	.	.	.	.	.	4f/	.
=28-	=28-	=28-	=28-	=28-	=28-	=28-	=28-	=28-	=28-
2C/	ſu-	2c\	ſu-	4G/	ſu-	0r	.	8e/	.
.	.	.	.	.	.	.	.	8d/	.
.	.	.	.	4F/	.	.	.	8c/	.
.	.	.	.	.	.	.	.	8d/	.
2C/	-ſu-	2c\	-ſu-	4G/	.	.	.	4e/	.
.	.	.	.	4A/	.	.	.	4f/	-ſu-
=29-	=29-	=29-	=29-	=29-	=29-	=29-	=29-	=29-	=29-
1C	-ran-	1c	-ran-	8G/	.	.	.	4e/	-ran-
.	.	.	.	8F/	.	.	.	.	.
.	.	.	.	8E/	.	.	.	4e/	-ti
.	.	.	.	8F/	.	.	.	.	.
.	.	.	.	4G/	.	.	.	4r	.
!	!	!	!	!LO:SIC:v:t=custos G	!	!	!	!	!
.	.	.	.	4A/	ſu-	.	.	4cc\	E
!	!	!	!	!LO:LB:g=original	!	!	!	!	!
=30-	=30-	=30-	=30-	=30-	=30-	=30-	=30-	=30-	=30-
1C	-ti	1c	-ti e	2G/	-ran-	2r	.	4.b-\	lim-
.	.	.	.	.	.	.	.	8b-\	-pi-
.	.	.	.	2G/	-ti	2g\	e	4b-\	-di
.	.	.	.	.	.	.	.	4a\	cri
=31-	=31-	=31-	=31-	=31-	=31-	=31-	=31-	=31-	=31-
1r	.	4.e-X\	lim-	1r	.	4.g\	lim-	2g/	ſsta-
.	.	8e-\	-pi-	.	.	8g\	-pi-	.	.
.	.	4e-\	-di	.	.	4g\	-di	2g/	-lli
.	.	4f\	cri	.	.	4fny\	cri	.	.
=32-	=32-	=32-	=32-	=32-	=32-	=32-	=32-	=32-	=32-
1r	.	2c\	ſsta-	1r	.	2e\	ſsta-	2r	.
.	.	2c\	-lli	.	.	2e\	-lli	2a\	Voi
=33-	=33-	=33-	=33-	=33-	=33-	=33-	=33-	=33-	=33-
1F	Voi	1c	Voi	1A	Voi	2r	.	2.a\	a-
.	.	.	.	.	.	2f\	Voi	.	.
.	.	.	.	.	.	.	.	4a\	-ni-
=34-	=34-	=34-	=34-	=34-	=34-	=34-	=34-	=34-	=34-
2.D/	a-	2.d\	a-	2.F/	a-	2.f\	a-	2a\	-ma-
.	.	.	.	.	.	.	.	2e/	-li
!LO:SIC:v:t=custos AA	!	!LO:SIC:v:t=custos c#	!	!	!	!LO:SIC:v:t=custos e	!	!	!
4D/	-ni-	4d\	-ni-	4F/	-ni-	4f\	-ni-	.	.
!LO:LB:g=original	!	!LO:LB:g=original	!	!	!	!LO:LB:g=original	!	!	!
=35-	=35-	=35-	=35-	=35-	=35-	=35-	=35-	=35-	=35-
2AA/	-ma-	2c#X\	-ma-	2.A/	-ma-	2e\	-ma-	2r	.
!	!	!	!	!	!	!	!	!LO:SIC:v:t=custos b-	!
2A\	-li	2c#\	-li	.	.	2a\	-li	2a\	inna
.	.	.	.	4A/	-li	.	.	.	.
!	!	!	!	!	!	!	!	!LO:LB:g=original	!
=36-	=36-	=36-	=36-	=36-	=36-	=36-	=36-	=36-	=36-
4.B-\	in-	4.d\	-inna-	1r	.	4.f\	-inna-	4.b-\	mo-
8G\	-na-	8B-\	-mo-	.	.	8g\	-mor-	8g/	-ra-
4.A\	-mo-	4.cny\	-rati	.	.	4.e\	-ati	4.a\	-ti-
8F\	-ra-	8d\	in	.	.	8f\	in	8f/	-in
=37-	=37-	=37-	=37-	=37-	=37-	=37-	=37-	=37-	=37-
2G\	-ti in	2B-\	ſon-	2r	.	1d	ſon-	2g/	ſon-
2D/	ſonti	2f\	ti	2A/	in-	.	.	4c/	-ti
*	*	*	*	*	*	*	*	*	*ij
.	.	.	.	.	.	.	.	4cc\	in-
=38-	=38-	=38-	=38-	=38-	=38-	=38-	=38-	=38-	=38-
2r	.	1r	.	4.B-\	-na-	4G/	-ti	4.b-\	-na-
.	.	.	.	.	.	4g\	in-	.	.
.	.	.	.	8G/	-mor-	.	.	8b-\	-mo-
4r	.	.	.	4.A/	-ati	4.e\	-na-	4.a\	-ra-
4A\	in-	.	.	.	.	.	.	.	.
.	.	.	.	8F/	in	8f\	-mo-	8a\	-ti
=39-	=39-	=39-	=39-	=39-	=39-	=39-	=39-	=39-	=39-
4.B-\	-na-	4r	.	2G/	ſo-	4.d\	-ra-	1g	in
.	.	4d\	in-	.	.	.	.	.	.
8G\	-mo-	.	.	.	.	8e\	-ti	.	.
4.A\	-ra-	4.d\	-na-	2D/	-nti	2f\	in	.	.
8F\	-ti	8A/	-mor-	.	.	.	.	.	.
=40-	=40-	=40-	=40-	=40-	=40-	=40-	=40-	=40-	=40-
!	!	!LO:N:acc=#	!	!	!	!	!	!	!
1G	e in	4Bn\	-ati	0r	.	1d	ſonti	1e	ſonti
.	.	2c\	in	.	.	.	.	.	.
!	!	!LO:N:acc=#	!	!	!	!	!	!	!
.	.	4B\	ſo-	.	.	.	.	.	.
*	*	*	*	*	*	*	*	*	*Xij
=41-	=41-	=41-	=41-	=41-	=41-	=41-	=41-	=41-	=41-
0C	ſonti	1c	-nti	.	.	1r	.	2r	.
.	.	.	.	.	.	.	.	2g/	Voi
=42-	=42-	=42-	=42-	=42-	=42-	=42-	=42-	=42-	=42-
.	.	2r	.	1c	voi	1e	Voi	2.a\	ſa-
.	.	2c\	Voi	.	.	.	.	.	.
.	.	.	.	.	.	.	.	4a\	-cre
=43-	=43-	=43-	=43-	=43-	=43-	=43-	=43-	=43-	=43-
1r	.	2.c#X\	ſa-	2.A/	ſa-	2.e\	ſa-	2a\	Nin-
.	.	.	.	.	.	.	.	2f#X/	-ſe
.	.	4c#\	-cre	4A/	-cre	4e\	-cre	.	.
=44-	=44-	=44-	=44-	=44-	=44-	=44-	=44-	=44-	=44-
!	!	!LO:SIC:v:t=custos d	!	!	!	!	!	!LO:SIC:v:t=custos a	!
00r	.	2cny\	Nin-	2A/	Nin-	2e\	Nin-	2g/	ch'ba-
!	!	!LO:LB:g=original	!	!LO:SIC:v:t=custos G	!	!LO:SIC:v:t=custos d	!	!LO:LB:g=original	!
.	.	2d\	-ſe	2D/	-ſe	2a\	-ſe	4a\	-bi-
.	.	.	.	.	.	.	.	2b-\	-ta-
!	!	!	!	!LO:LB:g=original	!	!LO:LB:g=original	!	!	!
=45-	=45-	=45-	=45-	=45-	=45-	=45-	=45-	=45-	=45-
.	.	2B-y\	ch'ba-	2G/	ch'ba-	2d\	ch'ba-	.	.
.	.	.	.	.	.	.	.	4a\	-te i
.	.	4c\	-bi-	4F/	-bi-	2f\	-bi-	4.a\	ſon-
.	.	2d\	-tate	2B-\	ta-	.	.	.	.
.	.	.	.	.	.	.	.	16g/	.
.	.	.	.	.	.	.	.	16fny/	.
=46-	=46-	=46-	=46-	=46-	=46-	=46-	=46-	=46-	=46-
.	.	.	.	.	.	2.f\	-ta-	8e/	.
.	.	.	.	.	.	.	.	8f/	.
.	.	4d\	i	4F/	-te i	.	.	2g/	.
.	.	1.c\	-ſon-	8F/	ſon-	.	.	.	.
.	.	.	.	8G/	.	.	.	.	.
.	.	.	.	8A/	.	4c\	te-	4f#X/	.
.	.	.	.	8B-\	.	.	.	.	.
=47-	=47-	=47-	=47-	=47-	=47-	=47-	=47-	=47-	=47-
.	.	.	.	4.c\	.	8g\	i ſon-	0g	ti
.	.	.	.	.	.	8f\	.	.	.
.	.	.	.	.	.	8e\	.	.	.
.	.	.	.	8B-\	.	8d\	.	.	.
.	.	.	.	2A/	.	2c/	.	.	.
=48-	=48-	=48-	=48-	=48-	=48-	=48-	=48-	=48-	=48-
!	!	!LO:N:acc=#	!	!	!	!	!	!	!
1r	.	1Bn	ti	1G	ti	1d	-ti	.	.
=49-	=49-	=49-	=49-	=49-	=49-	=49-	=49-	=49-	=49-
1C	Deh	2r	.	2r	.	2r	.	1r	.
.	.	2.c\	Deh	2.e-X\	Deh	2.g\	Deh	.	.
=50-	=50-	=50-	=50-	=50-	=50-	=50-	=50-	=50-	=50-
2.E-X\	ſta	.	.	.	.	.	.	2r	.
.	.	2B-y\	ſta-	2e-yX\	ſta-	2g\	ſta-	.	.
.	.	.	.	.	.	.	.	2.cc\	Deh
!LO:SIC:v:t=custos C	!	!	!	!	!	!	!	!	!
4F\	t'a	4A/	-t'a	4c\	-t'a	4f\	-t'a	.	.
!LO:LB:g=original	!	!	!	!	!	!	!	!	!
=51-	=51-	=51-	=51-	=51-	=51-	=51-	=51-	=51-	=51-
1C	vdir	2G/	vdir	1c	vdir	2e\	vdir	.	.
.	.	.	.	.	.	.	.	2b-\	ſta-
*	*	*	*ij	*	*	*	*ij	*	*
.	.	2c\	Deh	.	.	2.g\	Deh	.	.
.	.	.	.	.	.	.	.	4a\	-te
=52-	=52-	=52-	=52-	=52-	=52-	=52-	=52-	=52-	=52-
1r	.	2.e-X\	ſta-	1r	.	.	.	2g/	a u-
.	.	.	.	.	.	2g\	ſta-	.	.
.	.	.	.	.	.	.	.	2g/	-dir
.	.	4f\	-t'a	.	.	4f\	t'a	.	.
=53-	=53-	=53-	=53-	=53-	=53-	=53-	=53-	=53-	=53-
2r	.	2c\	vdir	2r	.	2e\	vdir	2.a\	da
!	!	!	!	!	!	!LO:SIC:v:t=custos f	!	!	!
*	*	*	*Xij	*	*	*	*Xij	*	*
2C/	da	4r	.	2c\	da	2e\	da	.	.
!	!	!	!	!	!	!	!	!LO:SIC:v:t=custos a	!
.	.	4c\	da	.	.	.	.	4a\	piu
!	!	!	!	!	!	!LO:LB:g=original	!	!LO:LB:g=original	!
=54-	=54-	=54-	=54-	=54-	=54-	=54-	=54-	=54-	=54-
2F\	piu	2.A/	piu	2.c\	piu	2.f\	piu	2a\	ſe-
2FF/	ſe-	.	.	.	.	.	.	2g/	-cre-
!	!	!LO:SIC:v:t=custos A	!	!LO:SIC:v:t=custos c	!	!	!	!	!
.	.	4A/	ſe-	4c\	ſe-	4f\	ſe-	.	.
!	!	!LO:LB:g=original	!	!LO:LB:g=original	!	!	!	!	!
=55-	=55-	=55-	=55-	=55-	=55-	=55-	=55-	=55-	=55-
2AA/	-cre-	2A/	-cre-	2.c\	-cre-	2f\	-cre-	1g	-ti
2C/	-ti	4E/	-ti	.	.	2e\	-ti	.	.
.	.	2c\	Cal-	4G/	ti	.	.	.	.
=56-	=56-	=56-	=56-	=56-	=56-	=56-	=56-	=56-	=56-
1GG	Cal-	.	.	1G	Cal-	1d	Cal-	00g/	Calli.
!	!	!LO:N:acc=#	!	!	!	!	!	!	!
.	.	8Bn\	.	.	.	.	.	.	.
.	.	8A\	.	.	.	.	.	.	.
!	!	!LO:N:acc=#	!	!	!	!	!	!	!
.	.	2Bn\	.	.	.	.	.	.	.
=57-	=57-	=57-	=57-	=57-	=57-	=57-	=57-	=57-	=57-
00C	-li	00c	-li.	00G	-li.	00e	-li.	.	.
=58-	=58-	=58-	=58-	=58-	=58-	=58-	=58-	=58-	=58-
.	.	.	.	.	.	.	.	1ryy	.
==	==	==	==	==	==	==	==	==	==
*-	*-	*-	*-	*-	*-	*-	*-	*-	*-
!!!system-decoration: [(s1,s2,s3,s4,s5)]
!!!ENC: Marta Opryszak
!!!END: 2022-06-11
!!!ENC: Jan Barakat
!!!END: 2022-07-21
!!!YEC: Copyright 2022 Narodowy Instytut Fryderyka Chopina (https://polishscores.org)
!!!YEM: Licence CC BY 4.0 (https://creativecommons.org/licenses/by/4.0)
